X:0140
M:C
L:1/8
Q:1/2=104
K:G
d2Bc d2g2|fafd ege^c|d2Bc d2g2|fae^c d4 |
dgfe dcBA|B2BG AFED |G2DE G2e2|dBcA  G4:|

